T: Have A Drink With Me
M: 6/8
L: 1/8
K: Emin
|:A|BAG EGD | EGD EGA | BAG EGD | EAA AGA |
BAG EGD | EGD EGA | BAG E2 D |1 EGG G2A :|2 EGG G2 D ||
|:GBd e2d | dgd B2 A | GBd edB | caa a3 |
bag agf | ged e/f/ge | BAG EGD |1 EGG G2D :|2 EGG G2A ||
